X: 2345
T: Bagpipers
R: polka
M: 2/4
K: Gmajor
E/F/G GF|E2>D2|E>D EF|G/F/G/A/ GD|
E/F/G GF|E2>D2|E>D EF|G2G z:|
|:B/c/d dB|BA A2|B/A/B/c/ dd|
B/A/B/c/ dD|E/F/G GF|E2>D2|E>D EF|G2G z:|

